src/components/Icon/utils/svgsOptimized/clock-solid.svg

<?xml version="1.0" encoding="utf-8"?><svg width="24" height="24" xmlns="http://www.w3.org/2000/svg" viewBox="0 0 24 24"><path d="M12 3a9 9 0 1 0 .001 18.001A9 9 0 0 0 12 3Zm5 9.75h-5c-.41 0-.75-.34-.75-.75V6c0-.41.34-.75.75-.75s.75.34.75.75v5.25H17c.41 0 .75.34.75.75s-.34.75-.75.75Z"/></svg>

<svg width="24" height="24" viewBox="0 0 24 24"  xmlns="http://www.w3.org/2000/svg">
<path d="M12 3C7.03 3 3 7.03 3 12C3 16.97 7.03 21 12 21C16.97 21 21 16.97 21 12C21 7.03 16.97 3 12 3ZM17 12.75H12C11.59 12.75 11.25 12.41 11.25 12V6C11.25 5.59 11.59 5.25 12 5.25C12.41 5.25 12.75 5.59 12.75 6V11.25H17C17.41 11.25 17.75 11.59 17.75 12C17.75 12.41 17.41 12.75 17 12.75Z" />
</svg>
